src/assets/images/logos/pershing.svg

<?xml version="1.0" encoding="utf-8"?>
<svg width="138" height="35" viewBox="0 0 138 35" fill="none" xmlns="http://www.w3.org/2000/svg">
<path d="M40.2932 22.7513H38.8311V27.4186H48.6687V22.8892H47.0731V19.5942L47.2055 19.0449V18.4956L47.338 18.0841L47.6049 17.2601L47.7384 16.9855L47.8709 16.574L48.0034 16.2993L48.2683 16.1615L48.5352 16.0246L48.8012 15.8878L49.332 15.6132H51.7255L51.9914 15.75V9.29796L51.7255 9.16113H50.5292L50.2633 9.29796H49.9974L49.599 9.43579L49.332 9.57262L48.9346 9.70944L48.4018 9.9841L48.2683 10.1219L48.0034 10.3966L47.7384 10.5334L47.6049 10.8081L47.4715 11.0828L47.2055 11.6321L47.0731 11.9067L46.9406 12.3182L46.8071 12.5929L46.6737 13.0044V13.4169V9.84728H38.8311V13.9652H40.2932V22.7513Z" fill="#1F3D56"/>
<path d="M62.0945 10.945L61.5626 10.3967L61.2967 10.2599L61.0308 9.98421L60.7638 9.84739L60.4989 9.70955L60.1005 9.57273L59.8345 9.4359L59.5686 9.29806H59.3027L59.0357 9.16124H58.5049L58.3724 9.02441H57.5746L57.1752 9.16124L56.6443 9.29806L56.2449 9.4359L55.714 9.57273L55.3136 9.84739L54.9162 10.122L54.5168 10.5335L54.1184 10.8082L53.8525 11.2207L53.4531 11.6322L53.1881 12.1815L53.0547 12.593L52.7887 13.1423V13.6916L52.6553 14.3778V15.2008L52.7887 15.8879V16.4373L53.0547 17.5349L53.1881 17.9464L53.3206 18.221L53.5855 18.6335L54.1184 19.1818L54.5168 19.3187L54.7828 19.5943L55.1812 19.7322L55.5806 20.0058L56.1114 20.1427L56.6443 20.4173L59.0357 21.2413L59.4351 21.3791L59.5686 21.516L59.8345 21.6538L59.967 21.7906L60.1005 22.0643V23.1629L59.967 23.4376L59.8345 23.5744L59.5686 23.7123L59.3027 23.8501H59.1692L58.9033 23.9879H57.8395L57.5746 23.8501H57.4411L57.1752 23.7123L56.9092 23.5744L56.7768 23.4376L56.6443 23.3008L56.5108 23.0261L56.3774 22.8893L56.2449 22.6136L56.1114 22.34V21.2413H52.9212V27.5565H55.714V25.6339L55.8465 25.9096L55.979 26.0464L56.1114 26.321L56.2449 26.4579L56.5108 26.7325L56.6443 26.8693L56.9092 27.145L57.1752 27.2818L57.4411 27.4187L57.8395 27.5565L58.2389 27.6933L58.5049 27.8302L58.9033 27.968H59.8345L60.3654 28.1058L60.8973 27.968H61.2967L61.8286 27.8302L62.3604 27.6933L62.7588 27.4187L63.2907 27.2818L63.955 26.5957L64.3535 26.1832L64.6204 25.7717L64.8863 25.2224L65.1513 24.8109L65.2837 24.2616L65.5507 22.8893V21.1045L65.4172 20.5552V20.0058L65.2837 19.5943L65.1513 19.045L64.8863 18.6335L64.7529 18.3579L64.4869 17.9464L64.221 17.6727L63.8226 17.2602L63.4232 17.1234L63.0248 16.8487L62.6254 16.5741L62.0945 16.4373L61.5626 16.2994L58.3724 15.4764L58.1055 15.2008L57.973 15.0639L57.8395 14.9261L57.5746 14.6525V13.9653L57.7071 13.8285V13.5538L57.8395 13.417L58.1055 13.1423L58.3724 13.0045H58.6373L59.1692 12.8677L59.4351 13.0045H59.8345L60.2329 13.1423L60.6314 13.2802L60.8973 13.5538L61.2967 13.9653L61.5626 14.5156L61.961 15.0639H64.7529V9.29806H62.0945V10.945Z" fill="#1F3D56"/>
<path d="M77.7816 27.2814H85.7567V22.8888H84.428V14.3773L84.2945 13.5534L84.162 12.8672L83.8961 11.7686L83.6302 11.2202L83.3642 10.8077L83.0983 10.3963L82.6999 10.1216L82.4339 9.98376L82.0345 9.70909L81.6361 9.57227L81.2367 9.43545L80.8383 9.29761H79.1102L78.5784 9.43545H78.18L77.7816 9.57227L77.5156 9.70909L77.1172 9.84693L76.7168 10.1216L76.4519 10.2594L76.0535 10.5331L75.7865 10.8077L75.5216 11.0824L75.2557 11.3571L74.9887 11.6317L74.7238 11.9064L74.4579 12.3179V1.33545H66.2158V5.45335H67.9439V22.8888H66.2158V27.2814H75.92V22.8888H74.4579V16.7115L74.5913 16.299V16.0243L74.7238 15.7496V15.6128L74.9887 15.0635L75.1222 14.9256L75.3881 14.652H75.5216L75.6541 14.5152H76.4519L76.7168 14.652H76.8503L77.1172 14.7888L77.2497 14.9256L77.3822 15.2003V15.3381L77.5156 15.6128L77.6481 15.7496V16.0243L77.7816 16.299V27.2814Z" fill="#1F3D56"/>
<path d="M89.2129 8.19944H95.7268V1.88525H89.2129V8.19944Z" fill="#1F3D56"/>
<path d="M89.3462 22.7512H87.4847V27.1448H97.4558V22.7512H95.7277V9.84717H87.2188V13.9651H89.3462V22.7512Z" fill="#1F3D56"/>
<path d="M110.882 27.1449H118.858V22.7513H117.528V13.8284L117.395 13.1422V12.5929L117.262 11.9067L116.996 11.4942L116.73 11.0828L116.464 10.6703L116.066 10.2598L115.667 9.98411L115.268 9.84728L114.869 9.57262L114.338 9.43579L113.939 9.29796L113.54 9.16113H111.28L111.014 9.29796L110.748 9.43579L110.35 9.57262L110.084 9.70944L109.685 9.98411L109.419 10.1219L109.02 10.3966L108.754 10.6703L108.488 10.9449L108.222 11.3574L107.957 11.6321L107.691 12.0436L107.558 12.4561V9.57262H99.1836V13.9652H100.912V22.7513H99.1836V27.1449H109.02V22.7513H107.558V16.0246L107.691 15.4763L107.957 15.0638L108.222 14.7892L108.488 14.5155L108.754 14.3777H109.419L109.685 14.5155L109.951 14.6523L110.216 14.7892L110.482 15.0638L110.882 16.2993V27.1449Z" fill="#1F3D56"/>
<path d="M3.20472 21.6531V6.41549H0.944336V0.787109H14.5042L15.4346 0.924127L16.2323 1.06114L17.03 1.19898L17.8269 1.47302L19.1561 2.29676L19.6884 2.70863L20.2199 3.25834L20.7515 3.94425L21.1503 4.49314L21.4165 5.17987L21.948 6.82736L22.2142 8.47485V10.2594L21.948 12.1809L21.6818 12.8676L21.4165 13.6914L21.0176 14.3773L20.6188 14.9262L20.0873 15.4759L19.4223 16.0248L18.758 16.4366L18.093 16.7115L17.2954 16.9855L16.4977 17.2604L14.6369 17.5344H10.7812V21.6531H13.0415V27.2815H0.944336V21.6531H3.20472ZM10.7812 12.7306H12.51L12.7762 12.5928L13.1742 12.4557L13.4404 12.3179L13.7066 12.1809L13.9719 12.0439L14.2381 11.769L14.3716 11.4942L14.5042 11.3571L14.9023 10.5334V9.02374L14.7696 8.8859V8.47485L14.6369 8.33701L14.3716 7.78812L14.1054 7.51327L13.9719 7.23923L13.7066 7.10139L13.4404 6.82736L13.1742 6.69034L12.9089 6.55251L12.6427 6.41549H10.7812V12.7306ZM32.1837 21.3791H37.6348L37.3686 22.202L37.236 22.8888L36.9698 23.5747L36.571 24.2614L36.3048 24.8103L35.906 25.36L35.3744 25.7719L34.9756 26.3207L34.4441 26.5956L33.9117 27.0067L33.2475 27.2815L32.716 27.4185L32.051 27.6934L31.3868 27.8304H30.7218L30.0576 27.9682L28.9937 27.8304L27.9307 27.6934L26.9995 27.5564L26.2018 27.1445L25.4049 26.8696L24.6072 26.3207L24.0749 25.7719L23.4099 25.2221L23.0119 24.5354L22.2142 22.8888L21.6818 21.2413L21.5492 20.2805V19.1819L21.4165 18.2211L21.5492 17.1234L21.8153 15.201L22.0815 14.2402L22.3468 13.4165L22.7457 12.7306L23.1445 11.9068L23.6769 11.2201L24.3411 10.6704L25.0061 10.1223L25.6703 9.70965L26.468 9.29778L27.2657 9.02374L28.0633 8.74889L28.9937 8.61187H30.9879L31.9183 8.74889L32.8487 9.02374L33.6464 9.29778L34.4441 9.70965L34.9756 10.2594L35.6406 10.8082L36.1721 11.3571L36.571 12.1809L36.9698 12.8676L37.3686 13.6914L37.6348 14.5151L37.9002 16.4366L38.0329 17.5344V19.7316H27.7972V20.8294L27.9307 21.2413V21.5161L28.0633 21.9272V22.202L28.4622 23.0258L28.7276 23.1628L28.9937 23.4376L29.1264 23.5747H29.3926L29.7914 23.7125H30.5891L30.9879 23.4376L31.3868 23.1628L31.6521 22.7509L31.9183 22.4769L32.1837 21.6531V21.3791ZM27.7972 16.5736H32.051V15.4759L31.9183 15.064V14.7891L31.6521 14.2402V13.9654L31.5195 13.6914L31.2533 13.5535L31.1206 13.2795L30.5891 13.0046L30.3229 12.8676H29.6587L29.2591 13.0046L28.9937 13.1416L28.7276 13.4165L28.4622 13.5535L28.0633 14.3773L27.9307 14.7891V15.338L27.7972 15.6129V16.5736ZM130.024 11.632V9.43561H138V13.8284H136.538V26.3207L136.404 27.4185L136.139 29.066L135.74 29.8898L135.341 30.5765L134.809 31.2624L134.277 31.8113L133.746 32.2232L133.082 32.635L132.417 33.0469L131.619 33.3218L130.821 33.5966L130.024 33.8706L129.227 34.0077H124.839L124.308 33.8706H123.909L123.51 33.7336H123.111L122.845 33.5966H122.314L122.181 33.4588H121.915L122.314 28.2423H122.446V28.3801L122.713 28.5171L122.978 28.6541L123.776 28.929L124.441 29.066L125.106 29.203H127.099L127.232 29.066H127.498L127.631 28.929H127.764L128.03 28.7912L128.163 28.6541L128.296 28.5171L128.562 28.2423L128.694 28.1053L128.827 27.8304L128.961 27.5564L129.093 27.2815L129.227 27.0067L129.359 26.5956V26.0459L129.492 25.7719V25.36L129.625 25.2221V24.9481L129.359 25.2221L129.093 25.497L128.961 25.634L128.694 25.9089L128.163 26.1829L127.897 26.3207L127.764 26.4578L127.498 26.5956L127.232 26.7326L126.701 27.0067H126.301L126.169 27.1445H125.903L124.972 27.0067L124.042 26.8696L123.244 26.4578L122.446 26.1829L121.782 25.7719L120.718 24.6733L120.319 24.1244L119.921 23.4376L119.389 22.0642L119.123 21.2413L118.99 20.5545V19.7316L118.858 19.0449V17.1234L119.123 15.201L119.389 14.2402L119.655 13.4165L120.054 12.5928L120.319 11.9068L120.851 11.3571L121.25 10.8082L121.782 10.2594L122.446 9.84749L122.978 9.57263L123.643 9.29778L124.441 9.02374L125.106 8.8859H126.834L127.099 9.02374L127.365 9.16076H127.631L127.897 9.29778L128.163 9.57263L128.429 9.70965L128.694 9.9845L128.961 10.1223L129.227 10.3964L129.359 10.6704L129.625 10.9453L129.891 11.3571L130.024 11.632ZM130.024 18.0841V17.3974L129.891 17.1234V16.7115L129.758 16.4366V16.0248L129.492 15.4759L129.359 15.201L129.227 14.9262L128.961 14.6521L128.694 14.3773L128.429 14.2402L128.296 14.1032H127.764L127.498 14.2402L127.232 14.3773L126.966 14.5151L126.701 14.6521L126.435 15.201L126.301 15.4759L126.169 15.8877L125.903 16.4366V17.1234L125.771 17.3974V18.633L125.903 19.0449V19.7316L126.169 20.5545V20.8294L126.435 21.2413L126.567 21.6531L126.701 21.9272L126.966 22.202L127.099 22.3399L127.365 22.4769L127.764 22.6139H128.296L128.827 22.3399L128.961 22.202L129.227 21.9272L129.492 21.3791L129.625 20.9664L129.758 20.6924L129.891 20.2805V19.4568L130.024 19.1819V18.0841Z" fill="#1F3D56"/>
</svg>

<svg width="138" height="35" fill="none" xmlns="http://www.w3.org/2000/svg"><path d="M40.293 22.751h-1.462v4.668h9.838v-4.53h-1.596v-3.295l.133-.55v-.548l.132-.412.267-.824.133-.275.133-.411.132-.275.265-.137.267-.137.266-.137.531-.275h2.393l.266.137V9.298l-.266-.137H50.53l-.266.137h-.266l-.398.138-.267.137-.397.136-.533.275-.134.138-.265.275-.265.136-.133.275-.133.275-.267.55-.132.274-.132.411-.134.275-.133.411v.413-3.57H38.83v4.118h1.462v8.786zM62.094 10.945l-.531-.548-.266-.137-.266-.276-.267-.137-.265-.137-.399-.137-.266-.137-.265-.138h-.266l-.267-.137h-.531l-.133-.137h-.797l-.4.137-.53.137-.4.138-.531.137-.4.274-.398.275-.4.412-.398.274-.266.413-.399.411-.265.55-.133.411-.266.55v.549l-.134.686v.823l.134.687v.55l.266 1.097.133.411.133.275.265.413.532.548.399.137.266.275.398.138.4.274.53.137.533.274 2.392.824.4.138.133.137.265.138.133.137.133.273v1.099l-.133.275-.133.136-.265.138-.266.138h-.134l-.266.138H57.84l-.265-.138h-.134l-.266-.138-.266-.138-.132-.136-.133-.137-.133-.275-.134-.137-.132-.275-.134-.274v-1.099h-3.19v6.316h2.793v-1.923l.133.276.132.136.132.275.134.137.266.275.133.136.265.276.266.137.266.137.398.137.4.137.266.137.398.138h.931l.531.138.532-.138h.4l.532-.138.531-.137.399-.274.532-.137.664-.686.398-.413.267-.411.266-.55.265-.411.133-.55.267-1.372v-1.784l-.134-.55v-.55l-.133-.41-.133-.55-.265-.412-.133-.275-.266-.412-.266-.273-.398-.413-.4-.137-.398-.274-.4-.275-.53-.137-.532-.138-3.19-.823-.267-.275-.133-.137-.133-.138-.265-.274v-.687l.132-.136v-.275l.133-.137.265-.275.267-.137h.265l.532-.137.266.136h.4l.398.138.398.138.266.274.4.411.266.55.398.549h2.792V9.298h-2.659v1.647zM77.782 27.281h7.975V22.89h-1.329v-8.512l-.133-.824-.133-.686-.266-1.098-.266-.549-.266-.412-.266-.412-.398-.274-.266-.138-.4-.275-.398-.137-.4-.137-.398-.137H79.11l-.532.137h-.398l-.398.137-.266.137-.399.138-.4.275-.265.137-.398.274-.267.275-.265.274-.266.275-.267.275-.265.274-.266.412V1.335h-8.242v4.118h1.728V22.89h-1.728v4.392h9.704V22.89h-1.462v-6.177l.133-.413v-.275l.133-.274v-.137l.265-.55.133-.137.266-.274h.134l.132-.137h.798l.265.137h.133l.267.137.133.137.132.274v.138l.134.275.132.137v.274l.134.275v10.982zM89.213 8.2h6.514V1.884h-6.514V8.2zM89.346 22.751h-1.861v4.394h9.97V22.75h-1.727V9.847h-8.51v4.118h2.128v8.786zM110.882 27.145h7.976V22.75h-1.33v-8.923l-.133-.686v-.55l-.133-.685-.266-.413-.266-.411-.266-.413-.398-.41-.399-.276-.399-.137-.399-.274-.531-.137-.399-.138-.399-.137h-2.26l-.266.137-.266.138-.398.137-.266.136-.399.275-.266.138-.399.275-.266.273-.266.275-.266.412-.265.275-.266.412-.133.412V9.573h-8.374v4.392h1.728v8.786h-1.728v4.394h9.836V22.75h-1.462v-6.726l.133-.549.266-.412.265-.275.266-.274.266-.137h.665l.266.137.266.137.265.137.266.275.4 1.235v10.846zM3.205 21.653V6.415H.945V.787h13.56l.93.137.797.137.798.138.797.274 1.33.824.531.412.532.55.532.685.398.55.267.686.531 1.647.266 1.648v1.784l-.266 1.922-.266.687-.265.823-.4.686-.398.55-.532.549-.665.549-.664.412-.665.274-.798.274-.797.275-1.861.274H10.78v4.12h2.26v5.628H.944v-5.629h2.26zm7.576-8.922h1.729l.266-.138.398-.137.266-.138.267-.137.265-.137.266-.275.134-.275.132-.137.398-.824v-1.51l-.132-.137v-.411l-.133-.138-.265-.549-.267-.275-.133-.274-.265-.138-.267-.274-.266-.137-.265-.137-.266-.138H10.78v6.316zm21.403 8.648h5.45l-.265.823-.133.687-.266.686-.399.686-.266.55-.399.549-.532.412-.398.549-.532.275-.532.41-.664.276-.532.137-.665.274-.664.137h-.665l-.664.138-1.064-.138-1.063-.137-.931-.137-.798-.412-.797-.274-.798-.55-.532-.548-.665-.55-.398-.687-.798-1.646-.532-1.648-.133-.96v-1.1l-.133-.96.133-1.098.266-1.922.266-.96.266-.825.399-.685.399-.824.532-.687.664-.55.665-.548.664-.412.798-.412.798-.274.797-.275.93-.137h1.995l.93.137.93.275.798.274.798.412.532.55.665.548.531.55.399.823.399.687.399.823.266.824.265 1.922.133 1.097v2.198H27.797v1.097l.134.412v.275l.132.411v.275l.4.824.265.137.266.275.132.137h.267l.398.137h.798l.399-.274.399-.275.265-.412.266-.274.266-.824v-.274zm-4.387-4.805h4.254v-1.098l-.133-.412v-.275l-.266-.549v-.275l-.133-.274-.266-.138-.132-.274-.532-.274-.266-.137h-.664l-.4.137-.265.137-.266.274-.266.137-.399.824-.132.412v.549l-.134.275v.96zm102.227-4.942V9.436H138v4.392h-1.462v12.493l-.134 1.098-.265 1.647-.399.824-.399.686-.532.686-.532.55-.531.411-.664.412-.665.412-.798.275-.798.275-.797.274-.797.137h-4.388l-.531-.137h-.399l-.399-.137h-.399l-.266-.137h-.531l-.133-.138h-.266l.399-5.217h.132v.138l.267.137.265.137.798.275.665.137.665.137h1.993l.133-.137h.266l.133-.137h.133l.266-.138.133-.137.133-.137.266-.275.132-.137.133-.275.134-.274.132-.274.134-.275.132-.411v-.55l.133-.274v-.412l.133-.138v-.274l-.266.274-.266.275-.132.137-.267.275-.531.274-.266.138-.133.137-.266.138-.266.137-.531.274h-.4l-.132.137h-.266l-.931-.137-.93-.137-.798-.412-.798-.275-.664-.411-1.064-1.099-.399-.549-.398-.686-.532-1.374-.266-.823-.133-.686v-.823l-.132-.687v-1.922l.265-1.922.266-.96.266-.825.399-.823.265-.686.532-.55.399-.549.532-.549.664-.412.532-.274.665-.275.798-.274.665-.138h1.728l.265.138.266.137h.266l.266.137.266.275.266.137.265.274.267.138.266.274.132.274.266.275.266.412.133.275zm0 6.452v-.687l-.133-.274v-.412l-.133-.274v-.412l-.266-.55-.133-.274-.132-.275-.266-.274-.267-.275-.265-.137-.133-.137h-.532l-.266.137-.266.137-.266.138-.265.137-.266.549-.134.275-.132.412-.266.549v.686l-.132.274v1.236l.132.412v.687l.266.823v.274l.266.412.132.412.134.274.265.275.133.138.266.137.399.137h.532l.531-.274.134-.138.266-.275.265-.548.133-.413.133-.274.133-.412v-.823l.133-.275v-1.098z" fill="#1F3D56"/></svg>
